X: 1
T: Miss Ramsey
M: 4/4
L: 1/8
R: reel
K: Dmaj
[|&quot;Part A&quot; D3B AFFB |AFBF AFEF| DCDF  A2FA| BdAF EDCE |
D3B AFFB |AFBF  AFEF| DCDF A2FA |BdAF Da^ga ||
&quot;Part B&quot;fddf  eAce |dcdA  Bcde |fddf eAce |dBAG FDD2 |
fddf  eAce |dcdA Bcde| faec dBAF |1 BdAF  EDCE||2 BdAF Egfe||
&quot;Part C&quot; dcdf adfa |gbaf gfef |dcdf adfa| gbaf egfe |
dcdf adfa |gbaf gfef |dcdf adfa |gbaf ea^ga |
&quot;Part B&quot;fddf  eAce |dcdA  Bcde |fddf eAce |dBAG FDD2 |
fddf  eAce |dcdA Bcde| faec dBAF |BdAF  EDCE||
